X:272
T:Hasta Siempre, Comandante Che Guevara
C:Carlos Puebla
Z:Jack Campin, http://www.campin.me.uk/
F:Jack Campin's Nine-Note Tunebook
% last edit 03-02-2013
M:C
L:1/8
Q:1/4=88
K:DMin
z2|zG BA (3G2F2G2|FE- E4    z2   |  zG BA  (3G2F2G2|FE-  E4
z2|D2 EF-  FD EF |G3  E- E2 zG   |  B2 AG- (3G2F2G2|F2   E4
zA|A3  A (3B2B2c2|B2 A2- A3  A   |(3A2A2A2   B3  c |B2   A4
zA|d3  A (3d2A2d2|c3 G- G2  zd/c/|  B3  F-   F2 FG |BA3- A2||"^last"d6|]


% == New Zealand songs ======================================================

